X:672
T: MARIA GING AUS ZU WANDERN
N: E2060A
O: Europa, Mitteleuropa, Deutschland, Hessen, Unter Lahnkreis, Dillkreis
R: geistlich, Marien - Lied, Legende
M: 4/4
L: 1/16
K: G
D4 | G2A2B2B2A4d2c2 | B2A2G4z4
B4 | A2G2F2G2A2G2F2E2 | D8z4
D4 | G3AB4A3Bc2e2 | d8z4
c4 | B2d2G2A2B4A4 | G8z4

